X: 1
T: The Mad Hatter
T: 8 x 32J 3C (Iain Boyd/The Happy Meeting)
P: Cape Breton Favorite
C: trad., from Brenda Stubbert colln.
C: arr. Terry Traub, 4-19-2000
M: 6/8
L: 1/8
R: Jig
K: G
|: Bc|"G"ded "D"cBA|"G"G2 B D2 c|BGB dcB|"D"A3 ABc|"G"ded "D"cBA|"G"G2 B D2 g|"D"fed cBA|"G"G3 G :|
|: Bc|"G"dBd g3|"C"ece "Am"e<ag|"D"fAA "A"Afe|"D"d3 dBc|"G"dBd "G7"g3|"C"ece "Am"e<ag|"D"fed cBA|"G"G3 G :|
